styles/2/Numix/128/places/default-folder-publicshare.svg

<?xml version="1.0" encoding="UTF-8" standalone="no"?>
<svg
   xmlns:dc="http://purl.org/dc/elements/1.1/"
   xmlns:cc="http://creativecommons.org/ns#"
   xmlns:rdf="http://www.w3.org/1999/02/22-rdf-syntax-ns#"
   xmlns:svg="http://www.w3.org/2000/svg"
   xmlns="http://www.w3.org/2000/svg"
   xmlns:sodipodi="http://sodipodi.sourceforge.net/DTD/sodipodi-0.dtd"
   xmlns:inkscape="http://www.inkscape.org/namespaces/inkscape"
   width="128px"
   height="128px"
   viewBox="0 0 128 128"
   version="1.1"
   id="svg24360"
   inkscape:version="0.91 r"
   sodipodi:docname="default-folder-publicshare.svg">
  <metadata
     id="metadata24373">
    <rdf:RDF>
      <cc:Work
         rdf:about="">
        <dc:format>image/svg+xml</dc:format>
        <dc:type
           rdf:resource="http://purl.org/dc/dcmitype/StillImage" />
      </cc:Work>
    </rdf:RDF>
  </metadata>
  <defs
     id="defs24371" />
  <sodipodi:namedview
     pagecolor="#ffffff"
     bordercolor="#666666"
     borderopacity="1"
     objecttolerance="10"
     gridtolerance="10"
     guidetolerance="10"
     inkscape:pageopacity="0"
     inkscape:pageshadow="2"
     inkscape:window-width="640"
     inkscape:window-height="480"
     id="namedview24369" />
  <g
     id="surface1">
    <path
       style=" stroke:none;fill-rule:nonzero;fill:rgb(91.372549%,69.019608%,50.196078%);fill-opacity:1;"
       d="M 18 16 C 15.070312 16 12 19.023438 12 22 L 12 24 L 6 24 C 3.058594 24 0 26.992188 0 30 L 0 106 C 0 110 2 112 6 112 L 122 112 C 125.136719 112 128 109.285156 128 106 L 128 40 C 128 36.988281 125.089844 34 122 34 L 116 34 L 116 22 C 116 19.078125 113.09375 16 110 16 Z M 18 16 "
       id="path24363" />
    <path
       style=" stroke:none;fill-rule:nonzero;fill:rgb(0%,0%,0%);fill-opacity:0.321569;"
       d="M 18 16 C 15.070312 16 12 19.023438 12 22 L 12 24 L 6 24 C 3.058594 24 0 26.992188 0 30 L 0 106 C 0 110 2 112 6 112 L 122 112 C 125.136719 112 128 109.285156 128 106 L 128 40 C 128 36.988281 125.089844 34 122 34 L 116 34 L 116 22 C 116 19.078125 113.09375 16 110 16 Z M 6 28 L 74 28 C 75.179688 28 76 29.03125 76 30 L 76 38 L 122 38 C 123.011719 38 124 39.015625 124 40 L 124 106 C 124 107.042969 123.042969 108 122 108 L 6 108 C 5.070312 108 4 107.207031 4 106 L 4 30 C 4 29.015625 5.03125 28 6 28 Z M 6 28 "
       id="path24365" />
    <path
       style=" stroke:none;fill-rule:nonzero;fill:rgb(0%,0%,0%);fill-opacity:0.321569;"
       d="M 71.714844 48 C 66.097656 48 61.464844 52.378906 61.464844 57.855469 C 61.507812 59.734375 61.609375 62.117188 62.675781 67.144531 L 62.789062 67.144531 C 63.003906 67.8125 63.335938 68.472656 63.890625 69.183594 C 64.386719 69.824219 65.046875 70.550781 65.652344 71.222656 C 65.839844 72.644531 65.871094 73.886719 65.652344 75.417969 C 63.984375 76.71875 60.976562 77.933594 58.269531 79.042969 C 56.855469 79.621094 55.550781 80.152344 54.519531 80.855469 C 53.535156 81.523438 52.824219 82.429688 52.757812 83.574219 C 52.753906 83.628906 52.644531 83.632812 52.644531 83.683594 L 51.433594 93.316406 L 51.433594 93.429688 C 51.433594 94.621094 52.207031 95.597656 53.308594 96.375 C 54.40625 97.152344 55.902344 97.757812 57.714844 98.300781 C 61.347656 99.382812 66.273438 100 71.714844 100 C 77.160156 100 82.085938 99.382812 85.714844 98.300781 C 87.53125 97.757812 89.027344 97.152344 90.125 96.375 C 91.226562 95.597656 92 94.621094 92 93.429688 L 92 93.316406 L 90.675781 83.683594 C 90.675781 83.648438 90.679688 83.609375 90.675781 83.574219 C 90.644531 83.027344 90.453125 82.492188 90.125 82.101562 C 89.777344 81.679688 89.316406 81.410156 88.804688 81.082031 C 87.777344 80.421875 86.46875 79.867188 85.054688 79.269531 C 82.3125 78.105469 79.308594 76.792969 77.667969 75.417969 C 77.546875 74.101562 77.539062 72.765625 77.667969 71.449219 C 78.261719 70.730469 78.925781 69.988281 79.433594 69.296875 C 79.996094 68.527344 80.421875 67.832031 80.644531 67.144531 C 81.851562 61.910156 81.90625 59.773438 81.96875 57.855469 C 81.96875 52.378906 77.332031 48 71.714844 48 Z M 52.644531 49.8125 C 48.03125 49.8125 44.269531 53.472656 44.269531 57.96875 C 44.300781 59.511719 44.382812 61.320312 45.261719 65.445312 L 45.261719 65.5625 C 45.4375 66.113281 45.789062 66.554688 46.253906 67.148438 C 46.65625 67.664062 47.195312 68.304688 47.683594 68.847656 C 47.832031 69.984375 47.851562 71.136719 47.683594 72.359375 C 46.324219 73.433594 43.855469 74.398438 41.621094 75.304688 C 40.464844 75.773438 39.488281 76.203125 38.644531 76.777344 C 37.847656 77.316406 37.28125 78.121094 37.210938 79.042969 C 37.207031 79.097656 37.101562 79.101562 37.101562 79.15625 L 36 86.972656 L 36 87.085938 C 36 87.820312 36.34375 88.457031 36.882812 89.011719 C 37.421875 89.566406 38.171875 90.074219 39.085938 90.484375 C 40.894531 91.292969 43.46875 91.851562 46.582031 92.183594 L 46.691406 92.183594 C 46.863281 92.183594 47.03125 92.136719 47.132812 92.070312 C 47.261719 91.984375 47.410156 91.921875 47.464844 91.84375 C 47.574219 91.6875 47.636719 91.53125 47.683594 91.390625 C 47.765625 91.144531 47.785156 90.851562 47.796875 90.597656 C 47.796875 90.5625 47.796875 90.523438 47.796875 90.488281 L 49.007812 80.855469 C 49.007812 80.464844 49.273438 79.988281 49.890625 79.496094 C 50.507812 79.003906 51.445312 78.511719 52.535156 78.023438 C 54.71875 77.050781 57.488281 76.148438 59.699219 74.964844 L 60.914062 74.285156 L 59.699219 73.71875 C 58.824219 73.28125 58.15625 72.804688 57.605469 72.359375 C 57.5 71.242188 57.492188 70.078125 57.605469 68.960938 C 57.609375 68.925781 57.601562 68.886719 57.605469 68.847656 C 58.445312 67.6875 59.085938 66.480469 59.371094 65.789062 L 59.480469 65.566406 L 59.371094 65.339844 C 59.273438 64.777344 59.304688 64.351562 59.148438 63.867188 C 58.09375 58.898438 57.976562 56.847656 57.9375 55.03125 C 57.9375 54.265625 58.113281 53.378906 58.378906 52.539062 L 58.597656 52.085938 L 58.15625 51.863281 C 56.683594 50.652344 54.738281 49.820312 52.644531 49.820312 Z M 52.644531 49.8125 "
       id="path24367" />
  </g>
</svg>

<svg xmlns="http://www.w3.org/2000/svg" viewBox="0 0 128 128">
 <g>
  <path d="m 18 16 c -2.93 0 -6 3.02 -6 6 l 0 2 l -6 0 c -2.941 0 -6 2.992 -6 6 l 0 76 c 0 4 2 6 6 6 l 116 0 c 3.137 0 6 -2.715 6 -6 l 0 -66 c 0 -3.01 -2.91 -6 -6 -6 l -6 0 l 0 -12 c 0 -2.922 -2.906 -6 -6 -6 m -92 0" style="fill:#e8b07f;fill-opacity:1;stroke:none;fill-rule:nonzero"/>
  <path d="m 18 16 c -2.93 0 -6 3.02 -6 6 l 0 2 l -6 0 c -2.941 0 -6 2.992 -6 6 l 0 76 c 0 4 2 6 6 6 l 116 0 c 3.137 0 6 -2.715 6 -6 l 0 -66 c 0 -3.01 -2.91 -6 -6 -6 l -6 0 l 0 -12 c 0 -2.922 -2.906 -6 -6 -6 m -104 12 l 68 0 c 1.18 0 2 1.031 2 2 l 0 8 l 46 0 c 1.012 0 2 1.016 2 2 l 0 66 c 0 1.043 -0.957 2 -2 2 l -116 0 c -0.93 0 -2 -0.793 -2 -2 l 0 -76 c 0 -0.984 1.031 -2 2 -2 m 0 0" style="fill:#000;fill-opacity:0.322;stroke:none;fill-rule:nonzero"/>
  <path d="m 71.71 48 c -5.617 0 -10.25 4.379 -10.25 9.855 c 0.043 1.879 0.145 4.262 1.211 9.289 l 0.113 0 c 0.215 0.668 0.547 1.328 1.102 2.039 c 0.496 0.641 1.156 1.367 1.762 2.039 c 0.188 1.422 0.219 2.664 0 4.195 c -1.668 1.301 -4.676 2.516 -7.383 3.625 c -1.414 0.578 -2.719 1.109 -3.75 1.813 c -0.984 0.668 -1.695 1.574 -1.762 2.719 c -0.004 0.055 -0.113 0.059 -0.113 0.109 l -1.211 9.633 l 0 0.113 c 0 1.191 0.773 2.168 1.875 2.945 c 1.098 0.777 2.594 1.383 4.406 1.926 c 3.633 1.082 8.559 1.699 14 1.699 c 5.445 0 10.371 -0.617 14 -1.699 c 1.816 -0.543 3.313 -1.148 4.41 -1.926 c 1.102 -0.777 1.875 -1.754 1.875 -2.945 l 0 -0.113 l -1.324 -9.633 c 0 -0.035 0.004 -0.074 0 -0.109 c -0.031 -0.547 -0.223 -1.082 -0.551 -1.473 c -0.348 -0.422 -0.809 -0.691 -1.32 -1.02 c -1.027 -0.66 -2.336 -1.215 -3.75 -1.813 c -2.742 -1.164 -5.746 -2.477 -7.387 -3.852 c -0.121 -1.316 -0.129 -2.652 0 -3.969 c 0.594 -0.719 1.258 -1.461 1.766 -2.152 c 0.563 -0.77 0.988 -1.465 1.211 -2.152 c 1.207 -5.234 1.262 -7.371 1.324 -9.289 c 0 -5.477 -4.637 -9.855 -10.254 -9.855 m -19.07 1.813 c -4.613 0 -8.375 3.66 -8.375 8.156 c 0.031 1.543 0.113 3.352 0.992 7.477 l 0 0.117 c 0.176 0.551 0.527 0.992 0.992 1.586 c 0.402 0.516 0.941 1.156 1.43 1.699 c 0.148 1.137 0.168 2.289 0 3.512 c -1.359 1.074 -3.828 2.039 -6.06 2.945 c -1.156 0.469 -2.133 0.898 -2.977 1.473 c -0.797 0.539 -1.363 1.344 -1.434 2.266 c -0.004 0.055 -0.109 0.059 -0.109 0.113 l -1.102 7.816 l 0 0.113 c 0 0.734 0.344 1.371 0.883 1.926 c 0.539 0.555 1.289 1.063 2.203 1.473 c 1.809 0.809 4.383 1.367 7.496 1.699 l 0.109 0 c 0.172 0 0.34 -0.047 0.441 -0.113 c 0.129 -0.086 0.277 -0.148 0.332 -0.227 c 0.109 -0.156 0.172 -0.313 0.219 -0.453 c 0.082 -0.246 0.102 -0.539 0.113 -0.793 c 0 -0.035 0 -0.074 0 -0.109 l 1.211 -9.633 c 0 -0.391 0.266 -0.867 0.883 -1.359 c 0.617 -0.492 1.555 -0.984 2.645 -1.473 c 2.184 -0.973 4.953 -1.875 7.164 -3.059 l 1.215 -0.68 l -1.215 -0.566 c -0.875 -0.438 -1.543 -0.914 -2.094 -1.359 c -0.105 -1.117 -0.113 -2.281 0 -3.398 c 0.004 -0.035 -0.004 -0.074 0 -0.113 c 0.84 -1.16 1.48 -2.367 1.766 -3.059 l 0.109 -0.223 l -0.109 -0.227 c -0.098 -0.563 -0.066 -0.988 -0.223 -1.473 c -1.055 -4.969 -1.172 -7.02 -1.211 -8.836 c 0 -0.766 0.176 -1.652 0.441 -2.492 l 0.219 -0.453 l -0.441 -0.223 c -1.473 -1.211 -3.418 -2.043 -5.512 -2.043 m 0 -0.008" style="fill:#000;fill-opacity:0.322;stroke:none;fill-rule:nonzero"/>
 </g>
</svg>
